X: 1
T: Belleisle March  v.2
P: piffero secondo a0078
O: Cushing
%R: march
F: http://ancients.sudburymuster.org/mus/ssp/pdf/belleisleF.pdf
Z: 2019 John Chambers <jc:trillian.mit.edu>
M: 4/4
L: 1/8
K: G
z2 |\
z2G>G F2F>A | G2e>c {c}B3A |\
G2 (3DGB F2 (3AFD | G2B>B B2 :: A2 |\
B>cB>A G2G2 | A>BA>G F2F2 |
B>cB>A G>AG>A | Bc BA/G/ {G}F2z2 |\
z2G>G F2F>A | G2e>c {c}B3A |\
G2 (3DGB F2 (3AFD | G2B>B B2 :|
